src/assets/icons/view-image.svg

<svg xmlns="http://www.w3.org/2000/svg" viewBox="0 0 32 32"><title>29-Images</title><g data-name="29-Images"><path d="M29 6v22a1 1 0 0 1-1 1H6a2 2 0 0 0 2 2h20a3 3 0 0 0 3-3V8a2 2 0 0 0-2-2"/><path d="M27 24V4a3 3 0 0 0-3-3H4a3 3 0 0 0-3 3v20a3 3 0 0 0 3 3h20a3 3 0 0 0 3-3m-7.71-10.71L15 17.59l-4.29-4.29a1 1 0 0 0-1.41 0L3 19.59V4a1 1 0 0 1 1-1h20a1 1 0 0 1 1 1v13.59l-4.29-4.29a1 1 0 0 0-1.42-.01"/><path d="M15 6a3 3 0 1 0 3 3 3 3 0 0 0-3-3m0 4a1 1 0 1 1 1-1 1 1 0 0 1-1 1"/></g></svg>

<svg xmlns="http://www.w3.org/2000/svg" viewBox="0 0 32 32"><title>29-Images</title><g id="_29-Images" data-name="29-Images"><path d="M29,6V28a1,1,0,0,1-1,1H6a2,2,0,0,0,2,2H28a3,3,0,0,0,3-3V8A2,2,0,0,0,29,6Z"/><path d="M27,24V4a3,3,0,0,0-3-3H4A3,3,0,0,0,1,4V24a3,3,0,0,0,3,3H24A3,3,0,0,0,27,24ZM19.29,13.29,15,17.59l-4.29-4.29a1,1,0,0,0-1.41,0L3,19.59V4A1,1,0,0,1,4,3H24a1,1,0,0,1,1,1V17.59l-4.29-4.29A1,1,0,0,0,19.29,13.29Z"/><path d="M15,6a3,3,0,1,0,3,3A3,3,0,0,0,15,6Zm0,4a1,1,0,1,1,1-1A1,1,0,0,1,15,10Z"/></g></svg>
